X:1
T:Lieder und Gesänge, Op.59
T:Auf dem See
T:8 Lieder und Gesänge, Op.59
T:2. Auf dem See
T:Johannes Brahms
T:Carl Simrock
T:Creative Commons copyright waiver (CC0 1.0 Universal)
T:Creative Commons copyright waiver (CC0 1.0 Universal)
T:Creative Commons copyright waiver (CC0 1.0 Universal)
T:Creative Commons copyright waiver (CC0 1.0 Universal)
C:Johannes Brahms
Z:Carl Simrock
Z:Creative Commons copyright waiver (CC0 1.0 Universal)
L:1/8
M:3/4
K:E
V:1 treble nm="Voice"
V:1
 z2 | z6 | z6 | z6 | z6 | z6 | z6 | z6 | z6 |: (B2 G2) E2 | (E2 D2) F2 | (B2 G2) E2 | (G2 F2) B2 | %13
w: |||||||||1. Blau- * er|Him- * mel,|blau- * e|Wo- * gen,|
w: |||||||||2. Wie * der|Kahn * uns|hebt * und|wie- * get,|
 (e2 B2) d2 | (c2 B2) G2 | (^A2 B2) c2 | (B4 F2) | F4 F2 | F4 z2 | B4 B2 | c4 B2 | A4 A2 | B4 A2 | %23
w: Re- * ben-|hü- * gel|um * den|See, *|um den|See,|drü- ber|blau- er|Ber- ge|Bo- gen|
w: leich- * ter|Ne- * bel|steigt * und|fällt, *|steigt und|fällt,|sü- sser|Him- mels-|frie- de|lie- get|
 (A2 G2) F2 | (G2 A2) B2 | (c2 d2) e2 | (e4 B2) | (d2 c2) B2 | (^A2 B2) E2 | (=A2 G2) F2 | E4 z2 | %31
w: schim- * mernd|weiss * im|rei- * nen|Schnee, *|schim- * mernd|weiss * im|rei- * nen|Schnee.|
w: ü- * ber|der * be-|glänz- * ten|Welt *|ü- * ber|der * be-|glänz- * ten|Welt.|
 z6 | z6 :| F4 B2 | =c4 A2 | F4 A2 | f4 e2 | (d2 B2) =c2 | (B2 D2) E2 | (F6- | F2 =G2) E2 | B4 z2 | %42
w: ||Stür- mend|Herz, tu|auf die|Au- gen,|sieh * um-|her * und|wer-|* * de|mild;|
w: |||||||||||
 z6 | e6- | e2 _e4 | =d6- | d3 =c B A | A2 =G2 z2 | z2 =G2 G2 | B4 =G2 | =c4 F2 | B4 z2 | %52
w: |Glück|* und|Frie-|* den magst du|sau- gen|aus des|Dop- pel-|him- mels|Bild,|
w: ||||||||||
 z2 B2 B2 | ^d4 B2 | e4 ^A2 | B4 z2 | z6 | z6 | z6 | (B2 G2) E2 | (E2 D2) F2 | (B2 cB) (GE) | %62
w: aus des|Dop- pel-|him- mels|Bild.||||Spie- * gelnd|sie * die|Flut * * er- *|
w: ||||||||||
 (G2 F2) B2 | (e2 B2) d2 | (c2 B2) G2 | (^A2 B2) c2 | (B4 F2) | F4 F2 | F4 z2 | B4 B2 | c4 B2 | %71
w: wi- * dern|Turm * und|Hü- * gel,|Busch * und|Stadt, *|Busch und|Stadt,|al- so|spieg- le|
w: |||||||||
 A4 A2 | B4 A2 | (A2 G2) F2 | (G2 A2) B2 | (c2 d2) e2 | (e4 B2) | (d2 c2) B2 | (^A2 B2) E2 | %79
w: du in|Lie- dern|was * die|Er- * de|Schön- * stes|hat, *|was * die|Er- * de|
w: ||||||||
 (=A2 G2) F2 | E4 z2 | z6 | z6 | z6 | z2 z2 |] %85
w: Schön- * stes|hat.|||||
w: ||||||

